X:1
T: The Drunken Parson
C:
R:Jig
Q:180
K:G
M:6/8
L:1/16
|:D2|G2B2B2 A2c2c2|B2d2d2 c4e2|d2B2B2 c2A2A2|B2G2G2 G4D2|G2G2B2 A2A2c2|B2d2d2 c4e2|d2B2B2 c2A2d2|B2G2G2 G4D2|
G2B2d2 g2f2g2|e2c2c2 c4B2|A2c2e2 a2g2a2|f2d2d2 d4B2|G2B2d2 g2f2g2|e2c2c2 c4e2|d2B2B2 c2A2d2|B2G2G2 G4:|
